X:1572
T:Blackthorn, The
R:reel
H:Also played in Amix, see "The Eel in the Sink", #502
D:Molloy, Peoples, Brady
Z:id:hn-reel-478
M:C|
K:Ador
e2AB cdec|dGBG dG (3Bcd|e2AB cdea|gedB BAA2:|
a2ea aged|(3Bcd ef g2eg|a2ea agef|gedB BAA2|
a2ea aged|(3Bcd ef g2eg|afge fdef|gedB BAA2||
